X:10
T: Die schoene Magdalena
N: Q0125E
O: Mitteleuropa, Deutschland / UdSSR, Ostpreussen
N: Schlusspause korrigiert.
N: Vierte und sechste Zeile = refrainartig auf Wortwiederholungen.
R: Ballade, verbotene Liebe, Flucht
M: 6/8
L: 1/16
K: G
D2 | G4G2B2A2G2 | d6d2z2
d2 | d4d2e2d2^c2 | d6z4
D2 | G4G2B2A2G2 | d6d2z2
d2 | d4d2e2d2^c2 | d6z4
d2 | g2d2d2d2B2G2 | A3A
A2F3ED2 | G4B2A4c2 | e6d2z2
c2 | B2d2G2A2c2F2 | G6z4

@@@ Tune index: 1508
